jsapp/svg-icons/arrow-last.svg

<svg height="40" viewBox="0 0 40 40" width="40" xmlns="http://www.w3.org/2000/svg"><path d="m15.414 28.828-1.414-1.414 7-7-7-7 1.414-1.414 8.414 8.414zm5 0-1.414-1.414 7-7-7-7 1.414-1.414 8.414 8.414z" fill-rule="evenodd"/></svg>

<?xml version="1.0" encoding="UTF-8"?>
<svg width="40px" height="40px" viewBox="0 0 40 40" version="1.1" xmlns="http://www.w3.org/2000/svg" xmlns:xlink="http://www.w3.org/1999/xlink">
    <!-- Generator: Sketch 50.2 (55047) - http://www.bohemiancoding.com/sketch -->
    <title>Icons/arrow-last</title>
    <desc>Created with Sketch.</desc>
    <defs>
        <path d="M15.414,28.828 L14,27.414 L21,20.414 L14,13.414 L15.414,12 L23.828,20.414 L15.414,28.828 Z M20.414,28.828 L19,27.414 L26,20.414 L19,13.414 L20.414,12 L28.828,20.414 L20.414,28.828 Z" id="path-1"></path>
    </defs>
    <g id="Icons/arrow-last" stroke="none" stroke-width="1" fill="none" fill-rule="evenodd">
        <mask id="mask-2" fill="white">
            <use xlink:href="#path-1"></use>
        </mask>
        <use id="Mask" fill="#000000" xlink:href="#path-1"></use>
    </g>
</svg>
